X: 5973
T: Camptown Races
R: polka
M: 2/4
K: Amajor
e>e ce|fe c2|cB2c|B4||ef/e/ ce|fe cA/B/|cc BB|A3 e||
A2 ce|a3 a|f/ef/ af|e4||ef/e/ ce|fe cA/B/|cc BB|A4||

